X: 397
T: Billy Wilson
C:Old-Time
B: jims roots
M:4/4
L:1/8
Q: 1/4=100
K:A
V:1 
%N:Arranged for Mandolin by Wendy Anthony plus Molsky/Marxer versino added
(3efg | "A"a2 g2 a2 eg | "D"fedf "A"ecBA | "E"B2 G2 E2 GE | "A"ABcd e2 (3efg |
a2 ga- afea | "D"fedf "A"edcB | ABcd efed | "E"cABG "A"A2 :|
|:  cB | "A"ABcd efeA | cAcA "E"B2 cB | "A"ABcd efeA| "E"cABG "A"A2 :|
|: EF | "A"A2 A2- AcBA | "D"F3A F2 EF | "A"A2 A2- ABcd | "E"e2 e2- efec |
"E (Bm)"B3c BcBA | "D"F3A F2 EF | "A"A2AB ceaf | "E"ecBG "A"A2 :|]
% abcbook-tune_id 6298c24599bcef49f209bc1a


% abcbook-boost 0
% abcbook-tablature 
% abcbook-transpose 
% abcbook-lastupdated 1654178373352
% abcbook-soundfonts 
% abcbook-repeats 1


